dist/svg/u1F988.svg

<?xml version="1.0" encoding="UTF-8"?><svg id="Layer_1" xmlns="http://www.w3.org/2000/svg" viewBox="0 0 40 40"><g><polygon points="33.33774 15.71743 31.65257 16.84925 30.60873 14.95965 33.33774 15.71743" style="fill:#8a94a0;"/><polygon points="30.81104 14.95965 28.86709 15.85155 27.93516 14.18481 30.81104 14.95965" style="fill:#8a94a0;"/><path d="M17.04737,6.39779s-3.50949-2.9979-8.9084-3.11768c-.53214-.01181-.86875,.57588-.58297,1.02493l3.84266,6.03786,5.64871-3.94511Z" style="fill:#4e5968;"/><path d="M14.29586,6.05109h1.73462c8.56094-.29004,17.35687,.82009,20.4551,1.263,.66826,.09553,1.11475,.72026,.99498,1.38461-.60151,3.33659-2.18161,5.55859-4.16695,7.03485l-6.76106-1.82162,3.43881,3.56239c-5.00506,1.75681-10.58736,.70854-10.58736,.70854,.4449,3.30496-1.0587,5.46174-2.01151,6.46587-.32468,.34217-.89196,.22599-1.06277-.21369l-2.2163-5.70486c-5.05364,5.51835-3.81881,9.11316-2.25526,10.99644,.87212,1.05046,2.25264,1.5324,3.60017,1.31281l9.47916-1.54473c.3548-.05782,.57655,.37188,.32387,.62757l-6.19405,6.26777c-.38425,.38882-1.00153,.44014-1.4458,.12162-2.47253-1.77268-4.535-3.42083-6.25531-4.9345C3.14179,24.34065,2.73757,20.17789,2.73757,20.17789,1.26224,12.87491,6.84535,6.05109,14.29586,6.05109Z" style="fill:#8a94a0;"/><circle cx="31.3022" cy="10.50819" r="1.11442"/><path d="M19.42747,7.94488l1.11882,7.62423s-3.19471-3.56297-1.11882-7.62423Z" style="fill:#4e5968;"/><path d="M16.46299,8.07266l1.11882,7.62423s-3.19471-3.56297-1.11882-7.62423Z" style="fill:#4e5968;"/></g><rect width="40" height="40" style="fill:none;"/></svg>

<svg id="Layer_1" data-name="Layer 1" xmlns="http://www.w3.org/2000/svg" viewBox="0 0 40 40"><defs><style>.cls-1{fill:#8a94a0;}.cls-2{fill:#4e5968;}.cls-3{fill:none;}</style></defs><polygon class="cls-1" points="33.338 15.717 31.653 16.849 30.609 14.96 33.338 15.717"/><polygon class="cls-1" points="30.811 14.96 28.867 15.852 27.935 14.185 30.811 14.96"/><path class="cls-2" d="M17.047,6.4A15.25,15.25,0,0,0,8.139,3.28a.67.67,0,0,0-.583,1.025L11.4,10.343Z"/><path class="cls-1" d="M14.3,6.051H16.03A126.161,126.161,0,0,1,36.486,7.314a1.18,1.18,0,0,1,1,1.385,10.762,10.762,0,0,1-4.167,7.035l-6.761-1.822,3.438,3.562a23.346,23.346,0,0,1-10.587.709,7.689,7.689,0,0,1-2.011,6.466.641.641,0,0,1-1.063-.214l-2.217-5.7c-5.053,5.519-3.818,9.113-2.255,11a3.864,3.864,0,0,0,3.6,1.312l9.48-1.544a.371.371,0,0,1,.323.627L19.067,36.39a1.121,1.121,0,0,1-1.445.122c-2.473-1.773-4.535-3.421-6.256-4.935-8.224-7.236-8.628-11.4-8.628-11.4A11.791,11.791,0,0,1,14.3,6.051Z"/><circle cx="31.302" cy="10.508" r="1.114"/><path class="cls-2" d="M19.427,7.945l1.119,7.624S17.352,12.006,19.427,7.945Z"/><path class="cls-2" d="M16.463,8.073,17.582,15.7S14.387,12.134,16.463,8.073Z"/><rect class="cls-3" width="40" height="40"/></svg>
